icons/1_Primary/Blesta.svg

<svg width="1024" height="1024" fill="none" xmlns="http://www.w3.org/2000/svg"><g clip-path="url(#a)"><path d="M512 1024c282.77 0 512-229.23 512-512S794.77 0 512 0 0 229.23 0 512s229.23 512 512 512Z" fill="#9ABEFF"/><path d="M374.07 421.08h52.12A29.926 29.926 0 0 0 456 391.22v-52.15a29.907 29.907 0 0 0-29.85-29.83h-52.08a29.893 29.893 0 0 0-29.87 29.83v52.16a29.91 29.91 0 0 0 29.87 29.85Zm275.86 0a30.001 30.001 0 0 0 29.86-29.86v-52.15a29.941 29.941 0 0 0-29.86-29.83h-52.14a29.996 29.996 0 0 0-21.082 8.766 29.997 29.997 0 0 0-8.808 21.064v52.16a30 30 0 0 0 29.89 29.86l52.14-.01ZM761.8 491h-52.14a30.002 30.002 0 0 0-29.87 29.91v52.16a29.917 29.917 0 0 1-29.86 29.79H374.06a29.873 29.873 0 0 1-29.87-29.79v-52.15a30 30 0 0 0-29.9-29.92h-52.13a30 30 0 0 0-29.84 29.91v52.16a29.902 29.902 0 0 0 29.84 29.79h52.14a30 30 0 0 1 29.9 29.82v52.2a29.901 29.901 0 0 0 29.87 29.87h275.86a30 30 0 0 0 29.86-29.87v-52.2a30.002 30.002 0 0 1 29.87-29.82h52.14a29.93 29.93 0 0 0 29.88-29.79v-52.15A29.997 29.997 0 0 0 761.8 491Z" fill="#fff"/></g><defs><clipPath id="a"><path fill="#fff" d="M0 0h1024v1024H0z"/></clipPath></defs></svg>

<svg width="1024" height="1024" viewBox="0 0 1024 1024" fill="none" xmlns="http://www.w3.org/2000/svg">
<g clip-path="url(#clip0_2_1683)">
<path d="M512 1024C794.77 1024 1024 794.77 1024 512C1024 229.23 794.77 0 512 0C229.23 0 0 229.23 0 512C0 794.77 229.23 1024 512 1024Z" fill="#9ABEFF"/>
<path d="M374.07 421.08H426.19C434.095 421.049 441.667 417.891 447.252 412.296C452.837 406.702 455.982 399.125 456 391.22V339.07C455.979 331.162 452.827 323.584 447.233 317.994C441.639 312.403 434.059 309.256 426.15 309.24H374.07C366.157 309.246 358.568 312.389 352.969 317.981C347.37 323.573 344.216 331.157 344.2 339.07V391.23C344.216 399.146 347.369 406.732 352.968 412.327C358.567 417.922 366.155 421.07 374.07 421.08ZM649.93 421.08C657.838 421.043 665.412 417.886 671.004 412.294C676.596 406.702 679.753 399.128 679.79 391.22V339.07C679.761 331.163 676.605 323.588 671.011 317.999C665.416 312.41 657.838 309.261 649.93 309.24H597.79C589.882 309.269 582.305 312.419 576.708 318.006C571.11 323.592 567.945 331.162 567.9 339.07V391.23C567.937 399.143 571.099 406.722 576.697 412.314C582.296 417.907 589.877 421.061 597.79 421.09L649.93 421.08ZM761.8 491H709.66C701.742 491.035 694.158 494.198 688.563 499.801C682.967 505.404 679.814 512.992 679.79 520.91V573.07C679.756 580.973 676.597 588.54 671.002 594.122C665.408 599.703 657.833 602.844 649.93 602.86H374.06C366.152 602.86 358.567 599.724 352.967 594.14C347.368 588.555 344.211 580.978 344.19 573.07V520.92C344.169 512.995 341.013 505.4 335.411 499.794C329.809 494.188 322.216 491.027 314.29 491H262.16C254.247 491.042 246.671 494.209 241.082 499.811C235.493 505.414 232.344 512.997 232.32 520.91V573.07C232.349 580.971 235.504 588.539 241.095 594.121C246.687 599.702 254.26 602.844 262.16 602.86H314.3C322.208 602.886 329.786 606.034 335.386 611.618C340.985 617.203 344.153 624.772 344.2 632.68V684.88C344.208 692.8 347.358 700.393 352.958 705.993C358.558 711.593 366.151 714.742 374.07 714.75H649.93C657.84 714.713 665.415 711.554 671.007 705.96C676.599 700.366 679.756 692.79 679.79 684.88V632.68C679.838 624.777 683.001 617.213 688.594 611.629C694.187 606.046 701.757 602.894 709.66 602.86H761.8C769.705 602.847 777.284 599.707 782.882 594.126C788.481 588.545 791.643 580.975 791.68 573.07V520.92C791.659 512.998 788.506 505.406 782.908 499.801C777.31 494.196 769.722 491.032 761.8 491Z" fill="white"/>
</g>
<defs>
<clipPath id="clip0_2_1683">
<rect width="1024" height="1024" fill="white"/>
</clipPath>
</defs>
</svg>
